img/4-5empresa.svg

<svg fill="none" height="73" viewBox="0 0 65 73" width="65" xmlns="http://www.w3.org/2000/svg"><g fill="#fff"><path d="m1.21338 72.82h62.01922c.3218 0 .6304-.1278.858-.3554.2275-.2275.3554-.5362.3554-.858v-70.39322c0-.321807-.1279-.630435-.3554-.857989-.2276-.227553-.5362-.355391-.858-.355391h-41.3234c-.3218 0-.6304.127838-.858.355391-.2275.227554-.3554.536182-.3554.857989v14.16752h-19.48242c-.318868 0-.624934.1255-.852003.3493-.227068.2239-.35688588.5282-.361377.847v55.0294c0 .3218.127838.6305.355391.858.227554.2276.536182.3554.857989.3554zm27.15582-2.4268h-12.4927v-8.0835h12.4927zm33.7184-52.6026v12.5098h-18.2691v-12.5098zm-18.2691 14.9365h18.2691v10.1514h-18.2691zm0 12.5782h18.2691v10.1685h-18.2691zm0 25.0879v-12.4927h18.2691v12.4927zm-20.6959-67.96644h38.965v12.95414h-38.965zm-20.69584 15.38094h38.96494v52.5855h-10.6299v-9.2969c.0023-.1599-.0275-.3188-.0877-.467-.0601-.1483-.1494-.2829-.2626-.3961-.1131-.1131-.2478-.2024-.396-.2626-.1483-.0601-.3071-.0899-.4671-.0876h-14.8853c-.1608-.0023-.3204.0274-.4696.0874-.1492.0599-.2849.1489-.3994.2618s-.2054.2475-.2675.3958c-.062.1484-.094.3075-.094.4683v9.2969h-11.00584z"/><path d="m6.18604 31.3604h31.85556c.16.0023.3188-.0275.467-.0877.1483-.0602.283-.1494.3961-.2626.1131-.1131.2024-.2478.2626-.3961.0602-.1482.09-.307.0877-.467v-9.0918c0-.3218-.1279-.6305-.3554-.858-.2276-.2276-.5362-.3554-.858-.3554h-31.85556c-.32181 0-.63044.1278-.85799.3554-.22756.2275-.35539.5362-.35539.858v9.0918c0 .3218.12783.6304.35539.858.22755.2275.53618.3554.85799.3554zm11.96296-2.4268v-6.7163h7.6733v6.665zm18.7988 0h-8.7842v-6.7163h8.6646zm-29.54838-6.7163h8.23728v6.665h-8.23728z"/><path d="m5.98096 44.8272h31.85554c.1593 0 .3171-.0314.4643-.0924.1473-.061.281-.1503.3937-.263s.202-.2464.263-.3937c.061-.1472.0924-.305.0924-.4643v-9.0918c0-.1594-.0314-.3172-.0924-.4644s-.1503-.2809-.263-.3936-.2464-.2021-.3937-.263c-.1472-.061-.305-.0924-.4643-.0924h-31.85554c-.15934 0-.31713.0314-.46434.0924-.14722.0609-.28098.1503-.39365.263s-.20205.2464-.26303.3936-.09236.305-.09236.4644v9.0918c0 .3218.12784.6304.35539.858.22755.2275.53618.3554.85799.3554zm11.96294-2.4268v-6.665h7.6733v6.665zm18.7989 0h-8.7842v-6.665h8.6645zm-29.54846-6.665h8.18606v6.665h-8.18606z"/><path d="m37.8365 58.294c.1593 0 .3171-.0314.4643-.0924.1473-.061.281-.1503.3937-.263s.202-.2465.263-.3937.0924-.305.0924-.4643v-9.1089c0-.1594-.0314-.3171-.0924-.4644-.061-.1472-.1503-.2809-.263-.3936s-.2464-.2021-.3937-.263c-.1472-.061-.305-.0924-.4643-.0924h-31.85554c-.32181 0-.63044.1278-.85799.3554-.22755.2275-.35539.5362-.35539.858v9.1089c0 .1593.03138.3171.09236.4643s.15036.281.26303.3937.24643.202.39365.263c.14721.061.305.0924.46434.0924zm-19.9781-2.4268v-6.6821h7.6734v6.6821zm18.7989 0h-8.6987v-6.6821h8.6645zm-29.46296-6.6821h8.18606v6.6821h-8.18606z"/></g></svg>

<svg width="65" height="73" viewBox="0 0 65 73" fill="none" xmlns="http://www.w3.org/2000/svg">
<path d="M1.21338 72.82H63.2326C63.5544 72.82 63.863 72.6922 64.0906 72.4646C64.3181 72.2371 64.446 71.9284 64.446 71.6066V1.21338C64.446 0.891573 64.3181 0.582945 64.0906 0.355391C63.863 0.127838 63.5544 0 63.2326 0L21.9092 0C21.5874 0 21.2788 0.127838 21.0512 0.355391C20.8237 0.582945 20.6958 0.891573 20.6958 1.21338V15.3809H1.21338C0.894512 15.3809 0.588446 15.5064 0.361377 15.7302C0.134309 15.9541 0.00449112 16.2584 0 16.5772L0 71.6066C0 71.9284 0.127838 72.2371 0.355391 72.4646C0.582945 72.6922 0.891573 72.82 1.21338 72.82ZM28.3692 70.3932H15.8765V62.3097H28.3692V70.3932ZM62.0876 17.7906V30.3004H43.8185V17.7906H62.0876ZM43.8185 32.7271H62.0876V42.8785H43.8185V32.7271ZM43.8185 45.3053H62.0876V55.4738H43.8185V45.3053ZM43.8185 70.3932V57.9005H62.0876V70.3932H43.8185ZM23.1226 2.42676H62.0876V15.3809H23.1226V2.42676ZM2.42676 17.8077H41.3917V70.3932H30.7618V61.0963C30.7641 60.9364 30.7343 60.7775 30.6741 60.6293C30.614 60.481 30.5247 60.3464 30.4115 60.2332C30.2984 60.1201 30.1637 60.0308 30.0155 59.9706C29.8672 59.9105 29.7084 59.8807 29.5484 59.883H14.6631C14.5023 59.8807 14.3427 59.9104 14.1935 59.9704C14.0443 60.0303 13.9086 60.1193 13.7941 60.2322C13.6796 60.3451 13.5887 60.4797 13.5266 60.628C13.4646 60.7764 13.4326 60.9355 13.4326 61.0963V70.3932H2.42676V17.8077Z" fill="white"/>
<path d="M6.18604 31.3604H38.0416C38.2016 31.3627 38.3604 31.3329 38.5086 31.2727C38.6569 31.2125 38.7916 31.1233 38.9047 31.0101C39.0178 30.897 39.1071 30.7623 39.1673 30.614C39.2275 30.4658 39.2573 30.307 39.255 30.147V21.0552C39.255 20.7334 39.1271 20.4247 38.8996 20.1972C38.672 19.9696 38.3634 19.8418 38.0416 19.8418H6.18604C5.86423 19.8418 5.5556 19.9696 5.32805 20.1972C5.10049 20.4247 4.97266 20.7334 4.97266 21.0552V30.147C4.97266 30.4688 5.10049 30.7774 5.32805 31.005C5.5556 31.2325 5.86423 31.3604 6.18604 31.3604ZM18.149 28.9336V22.2173H25.8223V28.8823L18.149 28.9336ZM36.9478 28.9336H28.1636V22.2173H36.8282L36.9478 28.9336ZM7.39942 22.2173H15.6367V28.8823H7.39942V22.2173Z" fill="white"/>
<path d="M5.98096 44.8272H37.8365C37.9958 44.8272 38.1536 44.7958 38.3008 44.7348C38.4481 44.6738 38.5818 44.5845 38.6945 44.4718C38.8072 44.3591 38.8965 44.2254 38.9575 44.0781C39.0185 43.9309 39.0499 43.7731 39.0499 43.6138V34.522C39.0499 34.3626 39.0185 34.2048 38.9575 34.0576C38.8965 33.9104 38.8072 33.7767 38.6945 33.664C38.5818 33.5513 38.4481 33.4619 38.3008 33.401C38.1536 33.34 37.9958 33.3086 37.8365 33.3086H5.98096C5.82162 33.3086 5.66383 33.34 5.51662 33.401C5.3694 33.4619 5.23564 33.5513 5.12297 33.664C5.0103 33.7767 4.92092 33.9104 4.85994 34.0576C4.79896 34.2048 4.76758 34.3626 4.76758 34.522V43.6138C4.76758 43.9356 4.89542 44.2442 5.12297 44.4718C5.35052 44.6993 5.65915 44.8272 5.98096 44.8272ZM17.9439 42.4004V35.7354H25.6172V42.4004H17.9439ZM36.7428 42.4004H27.9586V35.7354H36.6231L36.7428 42.4004ZM7.19434 35.7354H15.3804V42.4004H7.19434V35.7354Z" fill="white"/>
<path d="M37.8365 58.294C37.9958 58.294 38.1536 58.2626 38.3008 58.2016C38.4481 58.1406 38.5818 58.0513 38.6945 57.9386C38.8072 57.8259 38.8965 57.6921 38.9575 57.5449C39.0185 57.3977 39.0499 57.2399 39.0499 57.0806V47.9717C39.0499 47.8123 39.0185 47.6546 38.9575 47.5073C38.8965 47.3601 38.8072 47.2264 38.6945 47.1137C38.5818 47.001 38.4481 46.9116 38.3008 46.8507C38.1536 46.7897 37.9958 46.7583 37.8365 46.7583H5.98096C5.65915 46.7583 5.35052 46.8861 5.12297 47.1137C4.89542 47.3412 4.76758 47.6499 4.76758 47.9717V57.0806C4.76758 57.2399 4.79896 57.3977 4.85994 57.5449C4.92092 57.6921 5.0103 57.8259 5.12297 57.9386C5.23564 58.0513 5.3694 58.1406 5.51662 58.2016C5.66383 58.2626 5.82162 58.294 5.98096 58.294H37.8365ZM17.8584 55.8672V49.1851H25.5318V55.8672H17.8584ZM36.6573 55.8672H27.9586V49.1851H36.6231L36.6573 55.8672ZM7.19434 49.1851H15.3804V55.8672H7.19434V49.1851Z" fill="white"/>
</svg>
